X:1
T:And Can it Be That I Should Gain?
T:Text: Charles Wesley (1707-1788) Tune: Thomas Campbell (1777-1844)
T:88 88 88 Refrain SAGINA http://www.hymnary.org/hymn/SJ1989/307
T:And Can it Be That I Should Gain?
%%score ( 1 2 ) ( 3 4 )
L:1/8
M:4/4
K:G
V:1 treble nm="Piano" snm="Pno."
V:2 treble 
V:3 bass nm="Piano" snm="Pno."
V:4 bass 
V:1
 [B,G]4 [DG]3 [DA] | [DB]6 [Dd]2 | (([Ec]2 [CE]2)) (F2 A2) | [B,G]6 B,2 | (C2 A2) (F2 D2) | %5
w: 3~~He left His|Fa- ther's|throne _ a- *|bove, So|free, _ so _|
w: 1~~And can it|be that|I _ should _|gain An|in- * t'rest _|
w: 2~~'Tis my- stery|all! Th'Im-|mor- * tal _|dies! Who|can _ ex- *|
 [DG]4 (A2 G2) | [DF]4 [^CE]4 | [DD]8 | D4 [DF]2 [DG]2 | (G4 F2) D2 | [DG]4 [DB]4 | [DA]6 D2 | %12
w: in- fi- *|nite His|grace;|Emp- tied Him-|self _ of|all but|love, And|
w: in the _|Sa- vior's|blood?|Died he for|me, _ who|caus'd his|pain? For|
w: plore His _|strange de-|sign?|In vain the|first- * born|se- raph|tries To|
 (([CE]2 [EG]4)) [CE]2 | (D2 G4) [EA]2 | [DB]4 [CA]4 | [B,G]8 | [DB]4 [DA]2 D2 | [DG]4 (A2 B2) | %18
w: bled _ for|A- * dam's|help- less|race;|'Tis mer- cy|all, im- *|
w: me _ who|him _ to|death pur-|sued?|A- ma- zing|love! how _|
w: sound _ the|depths _ of|love di-|vine!|'Tis mer- cy|all! let _|
 (c2 E2) (A2 G2) | (F3 E D2) [A,D]2 | (B,2 D2 G2) [B,D]2 | (E2 G2 c2) E2 | (F2 A2 d2) [CF]2 | %23
w: mense _ and _|free; _ _ For,|O _ _ my|God, _ _ it|found _ _ out|
w: can _ it _|be, _ _ That|thou, _ _ my|God, _ _ shouldst|die _ _ for|
w: earth _ a- *|dore, _ _ Let|an- * * gel|minds _ _ in-|quire _ _ no|
 [B,G]6 ||"^Refrain" G2 | B4 B4 | A6 A2 | c4 c4 | B6 B2 | e4 e4 | d4 (c2 A2) | [DG]4 [CF]4 | %32
w: me.|A-|ma- zing|love! how|can it|be That|Thou, my|God, should _|die for|
w: me?|||||||||
w: more.|||||||||
 [B,G]8 |] %33
w: me!|
w: |
w: |
V:2
 x8 | x8 | x4 C4 | x8 | C4 A,4 | x4 D4 | x8 | x8 | D4 x4 | D6 D2 | x8 | x6 D2 | x8 | D6 x2 | x8 | %15
 x8 | x6 D2 | x4 D4 | E4 E4 | D4 x4 | B,6 x2 | (C2 E4) E2 | D6 x2 | x4 x2 || z2 | z4 D4 | %26
 D2 D2 D2 z2 | z4 D4 | D2 D2 D2 z2 | z2 G2 G2 G2 | G4 E4 | x8 | x8 |] %33
V:3
 [G,,D,]4 [B,,G,]3 [D,F,] | G,6 [G,,B,]2 | [C,A,]4 (A,2 F,2) | [G,,G,]6 [G,,D,]2 | %4
w: ||||
 [C,E,]4 (D,2 [C,F,]2) | [B,,G,]4 (([F,,C]2 [G,,B,]2)) | [A,,A,]4 [A,,G,]4 | [D,F,]8 | %8
w: ||||
 [D,F,]4 [D,A,]2 [D,B,]2 | (B,4 A,2) [C,F,]2 | [B,,G,]4 [G,,G,]4 | [D,F,]6 [B,,G,]2 | %12
w: ||||
 [C,G,]6 [C,G,]2 | [B,,G,]6 [C,G,]2 | [D,G,]4 [D,F,]4 | [G,,G,]8 | [G,,G,]4 [D,F,]2 [C,F,]2 | %17
w: |||||
 [B,,G,]4 (([A,,F,]2 [G,,G,]2)) | [C,G,]4 (E,2 A,2) | (A,3 G, F,2) [D,F,]2 | [G,,G,]6 [G,,G,]2 | %21
w: ||||
 [C,G,]6 [C,A,]2 | (A,2 F,4) [D,A,]2 | [G,,G,]6 || z2 | z4 [G,,G,]4 | [D,F,]2 [D,F,]2 [D,F,]2 z2 | %27
w: |||||maz- ing love!|
 z4 [D,F,]4 | G,2 [G,B,]2 [G,B,]2 z2 | z2 [C,C]2 [E,C]2 [C,C]2 | [G,B,]4 (A,2 C2) | %31
w: How|can it be|That Thou, my|God, * *|
 [D,B,]4 [D,A,]4 | [G,,G,]8 |] %33
w: ||
V:4
 x8 | (G,2 D,2 B,,2) x2 | x4 D,4 | x8 | x4 D,2 x2 | x8 | x8 | x8 | x8 | D,6 x2 | x8 | x8 | x8 | %13
 x8 | x8 | x8 | x8 | x8 | x4 ^C,4 | D,6 x2 | x8 | x8 | D,6 x2 | x6 || x2 | x8 | x8 | x8 | %28
 G,2 x2 x4 | x8 | x4 C,4 | x8 | x8 |] %33

